cartflows/admin-core/assets/images/plugins/suretriggers/trusted-brands/PayPal_Logo.svg

<svg width="100" height="24" viewBox="0 0 100 24" fill="none" xmlns="http://www.w3.org/2000/svg">
<g clip-path="url(#clip0_4393_128282)">
<path fill-rule="evenodd" clip-rule="evenodd" d="M8.72593 5.64844H15.5592C19.2281 5.64844 20.6092 7.48841 20.3958 10.1916C20.043 14.6543 17.3196 17.1234 13.7071 17.1234H11.8833C11.3876 17.1234 11.0543 17.4484 10.9202 18.329L10.1459 23.4488C10.0947 23.7808 9.91832 23.973 9.65373 23.9992H5.36043C4.9565 23.9992 4.81363 23.6934 4.91946 23.0312L7.53707 6.61823C7.63938 5.96122 8.00273 5.64844 8.72593 5.64844Z" fill="#4B5563"/>
<path fill-rule="evenodd" clip-rule="evenodd" d="M38.3928 5.34375C40.6982 5.34375 42.8254 6.58263 42.5344 9.67022C42.1816 13.3397 40.1972 15.3701 37.0663 15.3788H34.3305C33.9372 15.3788 33.7467 15.6969 33.6444 16.3486L33.1152 19.6808C33.0358 20.1841 32.7748 20.4322 32.3902 20.4322H29.845C29.4393 20.4322 29.2982 20.1753 29.3881 19.6005L31.4889 6.24539C31.593 5.58838 31.8417 5.34375 32.295 5.34375H38.3875H38.3928ZM34.2476 12.4939H36.3202C37.6166 12.445 38.4774 11.5556 38.5638 9.95154C38.6168 8.96079 37.9412 8.25136 36.867 8.2566L34.9161 8.26534L34.2476 12.4939ZM49.4541 19.41C49.6869 19.2003 49.9233 19.092 49.8898 19.3506L49.8069 19.9692C49.7645 20.2924 49.8933 20.4637 50.1967 20.4637H52.458C52.839 20.4637 53.0242 20.3116 53.1177 19.728L54.5111 11.0646C54.5817 10.6295 54.4741 10.4163 54.1407 10.4163H51.6537C51.4296 10.4163 51.3203 10.5404 51.2621 10.8794L51.1703 11.4123C51.1227 11.6902 50.994 11.7391 50.874 11.4595C50.4524 10.4705 49.3765 10.0267 47.8754 10.0616C44.3882 10.1333 42.0369 12.7561 41.7847 16.118C41.5907 18.7181 43.471 20.7607 45.951 20.7607C47.7502 20.7607 48.5545 20.2365 49.4611 19.4152L49.4541 19.41ZM47.5597 18.0768C46.0586 18.0768 45.0126 16.8903 45.2296 15.4365C45.4465 13.9827 46.8506 12.7962 48.3517 12.7962C49.8527 12.7962 50.8987 13.9827 50.6817 15.4365C50.4648 16.8903 49.0625 18.0768 47.5597 18.0768ZM58.9367 10.3884H56.6437C56.171 10.3884 55.9787 10.7379 56.1286 11.1677L58.9755 19.4257L56.1833 23.3555C55.9487 23.684 56.1304 23.9828 56.4602 23.9828H59.0373C59.1875 24 59.3395 23.9741 59.4752 23.9081C59.6109 23.8421 59.7247 23.7389 59.8028 23.6107L68.5587 11.1695C68.8286 10.7868 68.7016 10.3849 68.2589 10.3849H65.8194C65.4014 10.3849 65.2338 10.5491 64.9939 10.8934L61.3427 16.1355L59.7111 10.8811C59.6158 10.5631 59.3777 10.3884 58.9385 10.3884H58.9367Z" fill="#4B5563"/>
<path fill-rule="evenodd" clip-rule="evenodd" d="M77.6674 5.34334C79.9728 5.34334 82.1001 6.58222 81.8091 9.66981C81.4563 13.3393 79.4719 15.3697 76.341 15.3784H73.607C73.2136 15.3784 73.0231 15.6965 72.9208 16.3482L72.3917 19.6804C72.3123 20.1837 72.0512 20.4318 71.6667 20.4318H69.1214C68.7157 20.4318 68.5746 20.1749 68.6646 19.6001L70.7689 6.24148C70.873 5.58447 71.1217 5.33984 71.575 5.33984H77.6674V5.34334ZM73.5223 12.4935H75.5949C76.8913 12.4446 77.7521 11.5552 77.8385 9.95113C77.8915 8.96038 77.2159 8.25095 76.1417 8.25619L74.1908 8.26493L73.5223 12.4935ZM88.7288 19.4096C88.9616 19.1999 89.198 19.0916 89.1645 19.3502L89.0816 19.9687C89.0392 20.292 89.168 20.4633 89.4714 20.4633H91.7327C92.1137 20.4633 92.2989 20.3112 92.3924 19.7276L93.7858 11.0642C93.8564 10.6291 93.7488 10.4159 93.4154 10.4159H90.9319C90.7079 10.4159 90.5985 10.54 90.5403 10.879L90.4486 11.4119C90.4009 11.6898 90.2722 11.7387 90.1522 11.4591C89.7307 10.4701 88.6547 10.0263 87.1536 10.0612C83.6664 10.1329 81.3152 12.7556 81.0629 16.1176C80.8689 18.7176 82.7492 20.7603 85.2292 20.7603C87.0284 20.7603 87.8327 20.2361 88.7394 19.4148L88.7288 19.4096ZM86.8361 18.0764C85.3351 18.0764 84.2891 16.8899 84.506 15.4361C84.723 13.9823 86.127 12.7958 87.6281 12.7958C89.1292 12.7958 90.1752 13.9823 89.9582 15.4361C89.7412 16.8899 88.3372 18.0764 86.8361 18.0764ZM97.266 20.4772H94.6554C94.61 20.4792 94.5647 20.4713 94.5228 20.454C94.4808 20.4366 94.4433 20.4103 94.4128 20.3769C94.3823 20.3436 94.3596 20.3039 94.3464 20.2608C94.3331 20.2178 94.3296 20.1723 94.3362 20.1278L96.6292 5.7365C96.6511 5.63828 96.7059 5.55029 96.7847 5.48684C96.8635 5.42339 96.9616 5.38821 97.0631 5.38703H99.6737C99.7191 5.38501 99.7644 5.39296 99.8063 5.4103C99.8483 5.42763 99.8859 5.45393 99.9164 5.48732C99.9469 5.52071 99.9695 5.56035 99.9828 5.60342C99.996 5.6465 99.9995 5.69194 99.993 5.7365L97.6999 20.1278C97.6787 20.2266 97.6242 20.3154 97.5454 20.3795C97.4665 20.4437 97.368 20.4794 97.266 20.4807V20.4772Z" fill="#4B5563"/>
<path fill-rule="evenodd" clip-rule="evenodd" d="M4.45206 0H11.2924C13.2186 0 15.5046 0.0611576 17.0321 1.39789C18.0534 2.29079 18.5896 3.71139 18.4661 5.24208C18.0463 10.416 14.9225 13.3149 10.7315 13.3149H7.35894C6.78391 13.3149 6.40468 13.6923 6.2424 14.7128L5.30049 20.6538C5.23875 21.0382 5.07118 21.2654 4.77132 21.2933H0.550341C0.0829114 21.2933 -0.0828955 20.9439 0.0388127 20.1715L3.0727 1.12879C3.1944 0.36345 3.6195 0 4.45206 0Z" fill="#ADB2BD"/>
<path fill-rule="evenodd" clip-rule="evenodd" d="M6.34116 14.1109L7.53531 6.61997C7.63938 5.96297 8.00274 5.64844 8.72593 5.64844H15.5592C16.6899 5.64844 17.6053 5.82317 18.3215 6.14644C17.6353 10.7525 14.6279 13.3106 10.6909 13.3106H7.32364C6.87209 13.3124 6.54048 13.536 6.34116 14.1109Z" fill="#ADB2BD"/>
</g>
<defs>
<clipPath id="clip0_4393_128282">
<rect width="100" height="24" fill="white"/>
</clipPath>
</defs>
</svg>

<svg width="100" height="24" fill="none" xmlns="http://www.w3.org/2000/svg"><g clip-path="url(#a)" fill-rule="evenodd" clip-rule="evenodd"><path d="M8.726 5.648h6.833c3.67 0 5.05 1.84 4.837 4.544-.353 4.462-3.076 6.931-6.689 6.931h-1.824c-.495 0-.829.325-.963 1.206l-.774 5.12c-.051.332-.228.524-.492.55H5.36c-.404 0-.546-.306-.44-.968L7.536 6.618c.102-.657.466-.97 1.189-.97ZM38.393 5.344c2.305 0 4.432 1.239 4.141 4.326-.352 3.67-2.337 5.7-5.468 5.709H34.33c-.393 0-.583.318-.686.97l-.529 3.332c-.08.503-.34.751-.725.751h-2.545c-.406 0-.547-.257-.457-.831l2.1-13.356c.105-.657.354-.901.807-.901h6.098Zm-4.145 7.15h2.072c1.297-.049 2.157-.938 2.244-2.542.053-.991-.623-1.7-1.697-1.695l-1.95.008-.67 4.229Zm15.206 6.916c.233-.21.47-.318.436-.06l-.083.62c-.043.322.086.494.39.494h2.261c.381 0 .566-.152.66-.736l1.393-8.663c.07-.435-.037-.649-.37-.649h-2.487c-.224 0-.334.124-.392.463l-.092.533c-.047.278-.176.327-.296.047-.422-.989-1.498-1.432-2.999-1.397-3.487.071-5.838 2.694-6.09 6.056-.194 2.6 1.686 4.643 4.166 4.643 1.8 0 2.603-.524 3.51-1.346l-.007-.005Zm-1.894-1.333c-1.501 0-2.547-1.187-2.33-2.64.217-1.454 1.62-2.64 3.122-2.64 1.5 0 2.547 1.186 2.33 2.64-.217 1.453-1.62 2.64-3.122 2.64Zm11.377-7.689h-2.293c-.473 0-.665.35-.515.78l2.846 8.258-2.792 3.93c-.234.328-.053.627.277.627h2.577a.795.795 0 0 0 .766-.372l8.756-12.442c.27-.382.143-.784-.3-.784h-2.44c-.418 0-.585.164-.825.508l-3.651 5.242-1.632-5.254c-.095-.318-.333-.493-.773-.493h-.001ZM77.667 5.343c2.306 0 4.433 1.24 4.142 4.327-.353 3.67-2.337 5.7-5.468 5.708h-2.734c-.393 0-.584.319-.686.97l-.53 3.332c-.079.504-.34.752-.724.752H69.12c-.405 0-.546-.257-.456-.832l2.104-13.359c.104-.657.353-.901.806-.901h6.092v.003Zm-4.145 7.15h2.073c1.296-.048 2.157-.938 2.243-2.542.053-.99-.622-1.7-1.696-1.695l-1.951.009-.669 4.228ZM88.73 19.41c.233-.21.469-.318.436-.06l-.083.619c-.043.323.086.494.39.494h2.26c.382 0 .567-.152.66-.735l1.394-8.664c.07-.435-.037-.648-.37-.648h-2.484c-.224 0-.334.124-.392.463l-.091.533c-.048.278-.177.327-.297.047-.421-.989-1.497-1.433-2.998-1.398-3.488.072-5.839 2.695-6.091 6.057-.194 2.6 1.686 4.642 4.166 4.642 1.8 0 2.604-.524 3.51-1.345l-.01-.005Zm-1.893-1.334c-1.5 0-2.547-1.186-2.33-2.64.217-1.454 1.621-2.64 3.122-2.64s2.547 1.186 2.33 2.64c-.217 1.454-1.62 2.64-3.122 2.64Zm10.43 2.401h-2.61a.312.312 0 0 1-.243-.1.304.304 0 0 1-.077-.25l2.293-14.39a.445.445 0 0 1 .434-.35h2.61a.31.31 0 0 1 .31.216.304.304 0 0 1 .01.134L97.7 20.127a.445.445 0 0 1-.434.354v-.004Z" fill="#4B5563"/><path d="M4.452 0h6.84c1.927 0 4.213.061 5.74 1.398 1.021.893 1.558 2.313 1.434 3.844-.42 5.174-3.544 8.073-7.735 8.073H7.36c-.575 0-.954.377-1.117 1.398l-.942 5.94c-.061.385-.229.612-.529.64H.551c-.468 0-.634-.35-.512-1.121L3.073 1.129C3.194.363 3.619 0 4.453 0Z" fill="#ADB2BD"/><path d="m6.341 14.11 1.194-7.49c.104-.657.468-.972 1.19-.972h6.834c1.13 0 2.046.175 2.763.498-.687 4.606-3.694 7.165-7.631 7.165H7.324c-.452.001-.784.225-.983.8Z" fill="#ADB2BD"/></g><defs><clipPath id="a"><path fill="#fff" d="M0 0h100v24H0z"/></clipPath></defs></svg>
